austria/municipalities/20530.svg

<svg xmlns="http://www.w3.org/2000/svg" width="850" height="850" style="shape-rendering:geometricPrecision;text-rendering:geometricPrecision;image-rendering:optimizeQuality;fill-rule:evenodd;clip-rule:evenodd"><path style="opacity:1" fill="#c8c7c7" d="M837.5 17.5v-6h-826v4c-.951-1.419-1.284-3.085-1-5h828c.302 2.56-.032 4.893-1 7z"/><path style="opacity:1" fill="#272323" d="M837.5 17.5a61428.695 61428.695 0 0 1-33.5 476C788.842 618.081 729.009 714.248 624.5 782c-95.368 56.576-196.701 70.576-304 42C203.343 788.171 120.509 714.004 72 601.5c-12.891-32.563-21.558-66.23-26-101a46084.756 46084.756 0 0 1-34.5-485v-4h826v6z"/><path style="opacity:1" fill="#8f6b1a" d="M30.5 29.5c262.833-1 525.833-1.333 789-1 .295 2.235-.039 4.235-1 6v-5h-788z"/><path style="opacity:1" fill="#fcb713" d="M30.5 29.5h788v5c-9.59 135.987-19.09 271.987-28.5 408-1.1 66.731-16.766 129.731-47 189-52.173 91.548-129.34 151.048-231.5 178.5-118.762 26.256-225.429 1.589-320-74C115.241 669.659 72.075 585.826 62 484.5a364944.371 364944.371 0 0 0-31.5-455z"/><path style="opacity:1" fill="#c9252f" d="M412.5 133.5c51.213-1.827 83.713 21.84 97.5 71 25.164-16.369 51.997-19.535 80.5-9.5 42.082 19.99 59.582 53.156 52.5 99.5-2.608 10.881-7.108 20.881-13.5 30 43.742 10.899 67.409 38.732 71 83.5-2.373 46.374-26.04 75.374-71 87 15.002 22.177 19.169 46.344 12.5 72.5-14.019 39.839-42.186 60.839-84.5 63-17.118-.528-32.785-5.528-47-15-14.823 49.593-48.157 72.759-100 69.5-24.819-4.83-44.319-17.663-58.5-38.5-5.665-9.981-10.165-20.314-13.5-31-42.962 24.311-81.462 18.645-115.5-17-18.033-24.527-23.033-51.527-15-81 2.653-8.141 6.487-15.641 11.5-22.5-45.003-11.663-68.669-40.663-71-87 3.635-44.806 27.301-72.639 71-83.5-16.652-26.549-19.486-54.549-8.5-84 13.347-27.663 35.18-44.496 65.5-50.5 22.898-3.083 43.898 1.751 63 14.5 9.605-38.94 33.938-62.606 73-71z"/><path style="opacity:1" fill="#fbb514" d="M424.5 197.5c4.693 32.361 9.359 64.861 14 97.5.405.945 1.072 1.612 2 2 19.58 2.856 37.247 10.19 53 22 1 .667 2 .667 3 0l78.5-60.5a3187.964 3187.964 0 0 1-60.5 81c12.903 16.817 20.57 35.817 23 57a6325.546 6325.546 0 0 1 101 13.5A7297.883 7297.883 0 0 0 538 423.5c-3.078 20.753-10.911 39.42-23.5 56 19.878 26.59 39.878 53.09 60 79.5-.667.667-1.333.667-2 0a6728.975 6728.975 0 0 0-78-59.5c-16.188 12.172-34.354 19.839-54.5 23-.945.405-1.612 1.072-2 2a3704.719 3704.719 0 0 0-13 98c-4.659-33.13-9.493-66.296-14.5-99.5-20.73-3.072-39.397-10.905-56-23.5a4784.296 4784.296 0 0 0-74 56.5c-1.555 1.289-3.221 1.956-5 2a5387.305 5387.305 0 0 0 59-78c-12.469-16.785-20.135-35.619-23-56.5a15256.956 15256.956 0 0 0-100-13.5 1728.428 1728.428 0 0 1 100-13.5c2.425-21.174 10.092-40.174 23-57a2733.054 2733.054 0 0 0-60.5-79c-.667-.667-.667-1.333 0-2a2374.644 2374.644 0 0 0 80.5 61c16.773-12.386 35.439-20.386 56-24 4.742-32.685 9.409-65.352 14-98z"/><path style="opacity:1" fill="#0866a4" d="M411.5 309.5c46.386-2.896 80.886 15.77 103.5 56 17.367 40.708 12.034 78.041-16 112-32.834 32.413-71.001 40.579-114.5 24.5-38.614-18.874-58.614-49.874-60-93 1.067-37.477 17.4-66.144 49-86 11.977-6.823 24.644-11.323 38-13.5z"/><path style="opacity:1" fill="#f7b619" d="M423.5 322.5c1.463 2.703 2.296 5.703 2.5 9 2.45 18.7 5.117 37.367 8 56a4304.51 4304.51 0 0 1 49.5-38l1 .5-38 50a6061.634 6061.634 0 0 0 63 9.5 2869.574 2869.574 0 0 0-63 9.5 4358.703 4358.703 0 0 0 38.5 49.5c.667.667.667 1.333 0 2l-51-39a2432.305 2432.305 0 0 0-9 65 904.967 904.967 0 0 1-8.5-64 4.934 4.934 0 0 0-3 .5 4358.703 4358.703 0 0 1-49.5 38.5 833.128 833.128 0 0 1 38.5-52 5087.841 5087.841 0 0 0-65-9.5 3586.074 3586.074 0 0 1 63-9 3.647 3.647 0 0 0 1-1.5 2198.801 2198.801 0 0 0-38.5-50c-.667-.667-.667-1.333 0-2a2376.43 2376.43 0 0 0 52 40 1379.857 1379.857 0 0 0 8.5-65z"/></svg>

<?xml version="1.0" encoding="UTF-8"?>
<!DOCTYPE svg PUBLIC "-//W3C//DTD SVG 1.1//EN" "http://www.w3.org/Graphics/SVG/1.1/DTD/svg11.dtd">
<svg xmlns="http://www.w3.org/2000/svg" version="1.1" width="850px" height="850px" style="shape-rendering:geometricPrecision; text-rendering:geometricPrecision; image-rendering:optimizeQuality; fill-rule:evenodd; clip-rule:evenodd" xmlns:xlink="http://www.w3.org/1999/xlink">
<g><path style="opacity:1" fill="#c8c7c7" d="M 837.5,17.5 C 837.5,15.5 837.5,13.5 837.5,11.5C 562.167,11.5 286.833,11.5 11.5,11.5C 11.5,12.8333 11.5,14.1667 11.5,15.5C 10.5489,14.0813 10.2155,12.4147 10.5,10.5C 286.5,10.5 562.5,10.5 838.5,10.5C 838.802,13.0593 838.468,15.3926 837.5,17.5 Z"/></g>
<g><path style="opacity:1" fill="#272323" d="M 837.5,17.5 C 826.95,176.207 815.783,334.873 804,493.5C 788.842,618.081 729.009,714.248 624.5,782C 529.132,838.576 427.799,852.576 320.5,824C 203.343,788.171 120.509,714.004 72,601.5C 59.109,568.937 50.4424,535.27 46,500.5C 33.6471,338.893 22.1471,177.227 11.5,15.5C 11.5,14.1667 11.5,12.8333 11.5,11.5C 286.833,11.5 562.167,11.5 837.5,11.5C 837.5,13.5 837.5,15.5 837.5,17.5 Z"/></g>
<g><path style="opacity:1" fill="#8f6b1a" d="M 30.5,29.5 C 293.333,28.5002 556.333,28.1669 819.5,28.5C 819.795,30.7354 819.461,32.7354 818.5,34.5C 818.5,32.8333 818.5,31.1667 818.5,29.5C 555.833,29.5 293.167,29.5 30.5,29.5 Z"/></g>
<g><path style="opacity:1" fill="#fcb713" d="M 30.5,29.5 C 293.167,29.5 555.833,29.5 818.5,29.5C 818.5,31.1667 818.5,32.8333 818.5,34.5C 808.91,170.487 799.41,306.487 790,442.5C 788.9,509.231 773.234,572.231 743,631.5C 690.827,723.048 613.66,782.548 511.5,810C 392.738,836.256 286.071,811.589 191.5,736C 115.241,669.659 72.0745,585.826 62,484.5C 51.5945,332.823 41.0945,181.156 30.5,29.5 Z"/></g>
<g><path style="opacity:1" fill="#c9252f" d="M 412.5,133.5 C 463.713,131.673 496.213,155.34 510,204.5C 535.164,188.131 561.997,184.965 590.5,195C 632.582,214.99 650.082,248.156 643,294.5C 640.392,305.381 635.892,315.381 629.5,324.5C 673.242,335.399 696.909,363.232 700.5,408C 698.127,454.374 674.46,483.374 629.5,495C 644.502,517.177 648.669,541.344 642,567.5C 627.981,607.339 599.814,628.339 557.5,630.5C 540.382,629.972 524.715,624.972 510.5,615.5C 495.677,665.093 462.343,688.259 410.5,685C 385.681,680.17 366.181,667.337 352,646.5C 346.335,636.519 341.835,626.186 338.5,615.5C 295.538,639.811 257.038,634.145 223,598.5C 204.967,573.973 199.967,546.973 208,517.5C 210.653,509.359 214.487,501.859 219.5,495C 174.497,483.337 150.831,454.337 148.5,408C 152.135,363.194 175.801,335.361 219.5,324.5C 202.848,297.951 200.014,269.951 211,240.5C 224.347,212.837 246.18,196.004 276.5,190C 299.398,186.917 320.398,191.751 339.5,204.5C 349.105,165.56 373.438,141.894 412.5,133.5 Z"/></g>
<g><path style="opacity:1" fill="#fbb514" d="M 424.5,197.5 C 429.193,229.861 433.859,262.361 438.5,295C 438.905,295.945 439.572,296.612 440.5,297C 460.08,299.856 477.747,307.19 493.5,319C 494.5,319.667 495.5,319.667 496.5,319C 522.667,298.833 548.833,278.667 575,258.5C 555.381,285.66 535.214,312.66 514.5,339.5C 527.403,356.317 535.07,375.317 537.5,396.5C 571.219,400.731 604.886,405.231 638.5,410C 604.926,414.273 571.426,418.773 538,423.5C 534.922,444.253 527.089,462.92 514.5,479.5C 534.378,506.09 554.378,532.59 574.5,559C 573.833,559.667 573.167,559.667 572.5,559C 546.642,538.975 520.642,519.142 494.5,499.5C 478.312,511.672 460.146,519.339 440,522.5C 439.055,522.905 438.388,523.572 438,524.5C 433.229,557.121 428.896,589.788 425,622.5C 420.341,589.37 415.507,556.204 410.5,523C 389.77,519.928 371.103,512.095 354.5,499.5C 329.653,518.091 304.987,536.924 280.5,556C 278.945,557.289 277.279,557.956 275.5,558C 295.415,532.162 315.082,506.162 334.5,480C 322.031,463.215 314.365,444.381 311.5,423.5C 278.191,418.891 244.857,414.391 211.5,410C 244.619,404.538 277.952,400.038 311.5,396.5C 313.925,375.326 321.592,356.326 334.5,339.5C 314.818,312.806 294.651,286.473 274,260.5C 273.333,259.833 273.333,259.167 274,258.5C 300.408,279.409 327.241,299.743 354.5,319.5C 371.273,307.114 389.939,299.114 410.5,295.5C 415.242,262.815 419.909,230.148 424.5,197.5 Z"/></g>
<g><path style="opacity:1" fill="#0866a4" d="M 411.5,309.5 C 457.886,306.604 492.386,325.27 515,365.5C 532.367,406.208 527.034,443.541 499,477.5C 466.166,509.913 427.999,518.079 384.5,502C 345.886,483.126 325.886,452.126 324.5,409C 325.567,371.523 341.9,342.856 373.5,323C 385.477,316.177 398.144,311.677 411.5,309.5 Z"/></g>
<g><path style="opacity:1" fill="#f7b619" d="M 423.5,322.5 C 424.963,325.203 425.796,328.203 426,331.5C 428.45,350.2 431.117,368.867 434,387.5C 450.41,374.712 466.91,362.046 483.5,349.5C 483.833,349.667 484.167,349.833 484.5,350C 471.833,366.667 459.167,383.333 446.5,400C 467.471,403.275 488.471,406.442 509.5,409.5C 488.454,412.435 467.454,415.602 446.5,419C 459.213,435.59 472.046,452.09 485,468.5C 485.667,469.167 485.667,469.833 485,470.5C 468,457.5 451,444.5 434,431.5C 430.708,453.124 427.708,474.791 425,496.5C 421.405,475.266 418.572,453.932 416.5,432.5C 415.448,432.351 414.448,432.517 413.5,433C 397.09,445.954 380.59,458.787 364,471.5C 376.041,453.829 388.874,436.496 402.5,419.5C 380.856,416.194 359.19,413.027 337.5,410C 358.471,406.814 379.471,403.814 400.5,401C 400.957,400.586 401.291,400.086 401.5,399.5C 388.909,382.653 376.075,365.986 363,349.5C 362.333,348.833 362.333,348.167 363,347.5C 380.153,361.075 397.486,374.409 415,387.5C 418.35,365.883 421.184,344.217 423.5,322.5 Z"/></g>
</svg>
